X:118
T: HORCH WAS KOMMT VON DRAUSSEN REIN
N: B0607
O: Europa, Mitteleuropa, Deutschland, Birkenfeld
R: Staende -, Seemanns - Lied, Tod
M: 2/4
L: 1/16
K: C
 | C,2D,2E,2F,2 | G,2A,2G,4
F,2D,2B,3A, | G,2E,2C4
C,2D,2E,2F,2 | G,2A,2G,4
F,2D,2B,2D2 | C4z4
A,2F,2C2B,A, | G,2E,2G,4
F,2D,2B,3A, | G,2E,2C4
A,2F,2C2B,A, | G,2E,2G,4
F,2D,2B,2D2 | C4z4

